X:1
T:6 Lieder, Op.15
T:Römische Nacht
T:1. Römische Nacht
T:Johanna Kinkel
T:Wilhelm Seibt
T:6 Lieder, Op.15 (für Alt oder Bariton) 
T:Creative Commons copyright waiver (CC0 1.0 Universal)
T:Creative Commons copyright waiver (CC0 1.0 Universal)
T:Creative Commons copyright waiver (CC0 1.0 Universal)
C:Johanna Kinkel  (1846 edition originally published under the name J. Mathieux)
Z:Gottfried Kinkel
Z:Creative Commons copyright waiver (CC0 1.0 Universal)
L:1/8
Q:1/4=78
M:4/4
K:D
V:1 treble nm="Gesang\nVoice"
V:1
"^Adagio ma non troppo" z4 | z8 | z8 | z8 | z8 | z8 | z8 | z8 | z4 z2 DF | A3 A B3 A | %10
w: ||||||||Rings- *|um auf al- len|
 A3 A (G3 E) | D3 D E2 BA | A6 DF | A3 A c2 BA | d6 B G | F3 F FE GF | D4 z2 EF | %17
w: Plät- zen  schläft *|un- be- wegt die *|Nacht, am *|blau- en Him- mel *|ste- het der|Mond in hel- * ler *|Pracht. So *|
"^MODERN SPELLING:\n\"to - ten - still\"\n" G3 G F2 ^D2 | (E3 F) G2 G2 | G3 ^G A2 D2 | B4 z2 B2 | %21
w: to- ten- still sind|bei- * de, das|alt' und neu- e|Rom, und|
 A2 A2 B3 A | d4 D2 ^D2 | E2 A2 B2 E2 | A4 z2 A2 | B3 F{/A} GF GB | (A>BA>G) F2 z A | %27
w: selbst ihr Rie- sen-|wäch- ter nickt|ein, Sankt Pe- ters|Dom. Nur|wun- der- sam * noch *|rau- * * * schen die|
 ^G3 A"^MISPRINT in \nIMSLP edition:\nshould be \"nah\"\n" B3 G | A8- | A8- | A2 z2 z4 | z8 | %32
w: Brun- nen nah und|fern.|_|||
 z4 z2 A2 | B3 A{/A} GF GB | (A3 G) F2 A2 | G2 =F2 E2 D2 | E8- | E4 (F2 G2) | A3 A A2{/c} BA | %39
w: Die|hal- ten wach * die *|See * le, die|selbst ent- schlie- fe|gern,|_ die *|spü- len aus dem *|
 A2 F2 A2 G E | D4 E4 | =F6 F2 | G2 _EG _B_A (3AG=F | (G3 =A) _B2 G2 | G3 G A3 A | _B6 z2 | %46
w: Her- zen lei- se das|al- te|Leid, im|blau- en * Mond- * licht * *|däm- * mert weit|fort die al- te|Zeit,|
 d4 =c4 | _B4 A3 G | F6 E2 | D4 z2 DF | A3 A B2 A2 | A4 G2 E2 | D3 D C3 C | D8- | D8- | D4 z4 | %56
w: weit fort,|weit fort die|al- te|Zeit. Im *|blau- en Mond- licht|däm- mert weit|fort die al- te|Zeit.|_||
 !fermata!z4 |] %57
w: |

